X:11
T:Dibdin's Fancy
H:Dance & Tune: Young's Vocal and Instrumental Music Miscellany, 1793.
H:Charles Dibdin (1745-1814).
M:2/4
L:1/8
P:AABBB
K:Gm
%
%
BFBF D2FF | GEEE edc2 | BFBF DFFF | GecA B2B,2 :|
|: fdcB gabg | fdcB f2f2 | fdcB gabg | fdcB f2f2 :|


%%topmargin 1.2 in
%%bottommargin 1.0 in
%%titlefont Times-Roman 24
%%composerspace 0
%%partsspace 0
%%writehistory 1
%%scale 0.7
%%maxshrink 1
%
%
